X: 3116
T: The CRIEFF MEETING
Q:"Reel."
R: Reel.
%R:reel
B: James Kerr "Merry Melodies" v.3 p.14 #116
Z: 2016 John Chambers <jc:trillian.mit.edu>
M: C
L: 1/8
K: A
uf |\
eaec A/A/A a2 | B=gdg B=GGf |\
eaec A/A/A a2 | faea cAA ::\
e |\
cAeA cAaA |
B=gdg B=GGB |\
[1 cAeA cAae | faea cAA :|\
[2 cAae faea | dfBe cAA |]

%%sep 1 1 500
%%sep 1 1 500

